src/images/Icons/Green/Check.svg

<svg fill="none" height="24" viewBox="0 0 24 24" width="24" xmlns="http://www.w3.org/2000/svg"><circle cx="12" cy="12" fill="#53a53f" r="12"/><path d="m10.1227 17.2448c-.33595 0-.67195-.1276-.92845-.3841l-3.5595-3.5595c-.513-.513-.513-1.3439 0-1.8554.513-.513 1.3425-.5146 1.8555-.0016l2.63245 2.6325 6.1921-6.19195c.513-.513 1.3424-.513 1.8554 0s.513 1.344 0 1.857l-7.1189 7.11895c-.2565.2565-.5926.3841-.9286.3841z" fill="#fff"/></svg>

<svg width="24" height="24" viewBox="0 0 24 24" fill="none" xmlns="http://www.w3.org/2000/svg">
<circle cx="12" cy="12" r="12" fill="#53A53F"/>
<path d="M10.1227 17.2448C9.78675 17.2448 9.45075 17.1172 9.19425 16.8607L5.63475 13.3012C5.12175 12.7882 5.12175 11.9573 5.63475 11.4458C6.14775 10.9328 6.97725 10.9312 7.49025 11.4442L10.1227 14.0767L16.3148 7.88475C16.8278 7.37175 17.6572 7.37175 18.1702 7.88475C18.6832 8.39775 18.6832 9.22875 18.1702 9.74175L11.0513 16.8607C10.7948 17.1172 10.4587 17.2448 10.1227 17.2448Z" fill="white"/>
</svg>
